src/images/header-youtube-icon.svg

<svg width="18" height="14" viewBox="0 0 18 14" fill="none" xmlns="http://www.w3.org/2000/svg">
<path d="M17.7131 5.5131C17.7131 5.12522 17.6485 4.6727 17.6485 4.15553C17.5839 3.63836 17.5192 3.12119 17.4545 2.66866C17.3253 2.15149 17.1313 1.76361 16.7434 1.44038C16.4202 1.11715 15.9677 0.923204 15.5152 0.858558C14.0283 0.664618 11.8303 0.599976 8.85657 0.599976C5.88284 0.599976 3.6202 0.664618 2.19798 0.858558C1.74545 0.923204 1.29293 1.11715 0.969697 1.44038C0.646465 1.76361 0.387875 2.15149 0.258582 2.66866C0.129289 3.12119 0.0646504 3.57371 0.0646504 4.15553C3.94474e-06 4.6727 0 5.12522 0 5.5131C0 5.90098 0 6.35351 0 6.99997C0 7.64644 0 8.16361 0 8.48684C0 8.87472 0.0646504 9.32725 0.0646504 9.84442C0.129297 10.3616 0.193935 10.8788 0.258582 11.3313C0.387875 11.8485 0.581818 12.2363 0.969697 12.5596C1.29293 12.8828 1.74545 13.0767 2.19798 13.1414C3.68484 13.3353 5.88284 13.4 8.85657 13.4C11.8303 13.4 14.0929 13.3353 15.5152 13.1414C15.9677 13.0767 16.4202 12.8828 16.7434 12.5596C17.0667 12.2363 17.3253 11.8485 17.4545 11.3313C17.5838 10.8788 17.6485 10.4262 17.6485 9.84442C17.7131 9.32725 17.7131 8.87472 17.7131 8.48684C17.7131 8.09896 17.7131 7.64644 17.7131 6.99997C17.7131 6.35351 17.7131 5.83633 17.7131 5.5131ZM12.2828 7.51715L7.17576 10.6848C7.11112 10.7495 6.98182 10.8141 6.85253 10.8141C6.72324 10.8141 6.65859 10.8141 6.5293 10.7495C6.33536 10.6202 6.20607 10.4262 6.20607 10.1677V3.76765C6.20607 3.50906 6.33536 3.31513 6.5293 3.18583C6.72324 3.05654 6.98182 3.05654 7.17576 3.18583L12.2828 6.35351C12.4768 6.4828 12.6061 6.67674 12.6061 6.87068C12.6061 7.06462 12.4768 7.38785 12.2828 7.51715Z" fill="white"/>
</svg>

<svg width="18" height="14" fill="none" xmlns="http://www.w3.org/2000/svg"><path d="M17.713 5.513c0-.388-.065-.84-.065-1.357a88.478 88.478 0 0 0-.194-1.487c-.129-.518-.323-.905-.71-1.229-.324-.323-.776-.517-1.229-.581C14.028.665 11.83.6 8.857.6 5.883.6 3.62.665 2.198.859c-.453.064-.905.258-1.228.581A2.58 2.58 0 0 0 .259 2.67c-.13.452-.194.905-.194 1.487C0 4.673 0 5.126 0 5.513v2.974c0 .388.065.84.065 1.357.064.518.129 1.035.194 1.487.129.518.323.905.71 1.229.324.323.776.517 1.229.581 1.487.194 3.685.259 6.659.259 2.973 0 5.236-.065 6.658-.259.453-.064.905-.258 1.228-.581.324-.324.582-.712.712-1.229.129-.452.194-.905.194-1.487.064-.517.064-.97.064-1.357V5.513Zm-5.43 2.004-5.107 3.168a.494.494 0 0 1-.323.13c-.13 0-.194 0-.324-.066a.679.679 0 0 1-.323-.581v-6.4c0-.259.13-.453.323-.582a.587.587 0 0 1 .647 0l5.107 3.168c.194.129.323.323.323.517s-.13.517-.323.646Z" fill="#fff"/></svg>
